X:1
T:The Twa Sisters
M:6/8
L:1/4
K:C
 E| c c/2 B c/2| A G/2 E E/2| G/2 G A G/2| E3/2 z3/2| E/2 c2- A/2|\
 B3/2 A G/2| E/2 A- A3/2| A3/2 A B/2| c3/2 B c/2| A/2 E2 E/2| G3/2 G A/2|\
 G3/2 E D/2| D/2- C2 D/2| E3/2-E/2-D/2 C/2| D/2- C C3/2| C||

